X:1
T:Khvalitye imya Gospodie
T:Сергeй Рахманинов, 1915
T:Взбранной воеводе
T:(гречесткого распева) Всенощное бдение, Op. 37, No. 15
T:Public Domain
T:Public Domain
T:Public Domain
T:Public Domain
C:Sergei Rakhmanninov
Z:Public Domain
%%score [ ( 1 2 ) ( 3 4 ) ( 5 6 ) ( 7 8 ) ]
L:1/8
Q:1/4=120
M:4/4
K:C
V:1 treble nm="Сопрано" snm="С."
V:2 treble 
V:3 treble nm="Альтъ" snm="А."
V:4 treble 
V:5 treble-8 nm="Теноръ" snm="Т."
V:6 treble-8 
V:7 bass nm="Басъ" snm="Б."
V:8 bass 
V:1
"^Довольно скоро, с ярком рутмом\nMedium-fast, with bright rhythm"!p!"^Взбран-ной во  –  е    –   во      –      де         по      –       бе        –       ди  –   тель–на  – я,                                 по  –  бе –\nVzbran– noi  vo  –  ye  –   vo      –      de         po      –       be        –       di   –    tel' –  na – ya,                               po  –  be –" [ce]2 [ce][Bd] [ce][Bd]!<(! cd!<)! | %1
!>(! !tenuto![ce][Bd][Ac][GB] !tenuto![Bd]4!>)! |!p! (!tenuto![Bd]3 [Ac]) (!tenuto![Bd]3 [Ac]) | %3
 [Bd]2!<(! [GB][Ac] [Bd][GB] [Ac]([Bd]!<)! | [ce]def) ge c2 | %5
!ff!"^– ди – тель–на   –   я,              я     –     ко    из – бавль-ше – ся       от        злых,            бла – го   –   дарст      –        –    вен –\n– di  –  tel'  – na   –  ya,            ya   –     ko     iz  – bavl' – she–sya      ot        zluikh,           bla  – go   –   darst      –        –     ven –" a4!>(! [eg]2 [df]2!>)! | %6
[M:2/4] e4 |[M:4/4]!mf! (!tenuto![ce]3 [Bd])!>(! [ce]2 [Ac]2!>)! | %8
!p! [Bd][Ac] [GB][Ac] [GB][Ac] Ac | dBAc [GB][Ad] [Be][Ac] | (dBcd ed) ef | %11
"^– на   –   я                                               вос–пи  –  су      –        –      ем  Ти   ра   –    би      Тво  –  и,                     Бо –го –ро   – \n– na   –  ya                                              vos–pi   –  su      –        –    yem Ti    ra    –    bi       Tvo –   i,                      Bo –go– ro   –" g2!f! (f3 d ec | %12
!>(! de [df]2 e4)!>)! |!ff! g2 gf (e4 | f2) fe d2!>(! d2!>)! | d2 d2 (d2 c2) |!f! d2 e2 (f2 ef | %17
 g2)"^– ди  – це;                                                       но        я        –        ко             и    –    му       –       –       ща   –   я    дер–жа–ву\n– di  –  tse;                                                      no       ya        –       ko              i     –    mu      –      –    shcha  – ya  der–zha–vu" fe (f3 e- | %18
 e2 d2 e4) |!p!!<(! ef g4 g2!<)! |!>(! gf!<(! (e3 f)!>(! fe!>)!!<)!!>)! | d2!p! d2 d2 d2 | %22
"^не       –         по   –  бе   –    ди       –       –           му   –   ю,                                                                      от      вся       –      ких нас\nne       –         po   –  be   –    di        –        –           mu  – yu,                                                                      ot      vsya     –      kikh nas" (d2 c2)!<(! d2 e2!<)! | %23
 (f2 ef g2) fe | (f3 e- e2 d2 | e6)!f! f2 | !>!g4 e2 f2 | %27
"^бед                                                 сво–бо– ди,                да        зо   –    вем                 Ти:                         ра – дуй  –  ся        не –\nbed                                                 svo–bo– di,                  da        zo   –    vem                Ti:                          ra – dui   –  cya      ne –" ([fa][eg][df]!>(![ce] defg)!>)! | %28
!mf! e2!>(! d2 c4!>)! |[M:6/4]!f! e2 [d^f]2 (!>!g a2 =f) !>!g4 |[M:4/4]!ff! [eg]2 [eg]2 [dg]2 g2 | %31
"^–ве       –       –        сто            не  – не – вест       –       –       –       –       –       –       –       –       –       –       –       –             на   –    я.\n –ve       –       –        sto             ne –  ne – vest       –       –       –       –       –       –       –       –       –       –       –       –             na  –    ya.    \n" ([eg][df][ce][df] [eg][fa]) gf | %32
[M:6/4] ed ef (g3 f g2 ag |[M:4/4]!ff! !>!f2 ed e3 g | %34
 !>!f2[Q:1/4=80] ed"^задерживая\nslowing" e2 dc |"^Медленно\nslow"[Q:1/4=60]!>(! d4) (c2 B2)!>)! | %36
!p! !fermata!c8 |] %37
V:2
 x2 x2 x2 A2 | x8 | x8 | x8 | x8 | (f3 e) x4 |[M:2/4] x4 |[M:4/4] x8 | x8 | BG A2 x4 | %10
 B2 cd ed x2 | x8 | x8 | x8 | x8 | x8 | x8 | x8 | x8 | x8 | x8 | x8 | x8 | x8 | x8 | x8 | x8 | x8 | %28
 x8 |[M:6/4] x2 x2 d4 (e f2 d) |[M:4/4] x2 x2 x2 cd | x8 |[M:6/4] x12 |[M:4/4] x8 | x8 | x8 | x8 |] %37
V:3
!p! c2 A2 G2!<(! EF!<)! |!>(! !tenuto!G4 !tenuto!G4!>)! |!p! (!tenuto!G3 E) (!tenuto!G3 E) | %3
 G2!<(! DE F2 (G2!<)! | c4) [Gc]2 [EG]2 |!ff! c4!>(! c2 B2!>)! |[M:2/4] c4 | %7
[M:4/4]!mf! !tenuto!G4!>(! G2 G2!>)! |!p! FE FE FE [DF]E | FE[DF]E DF G2 | (G2 AB) c2 c2 | %11
 [Gc]2!f! (c6- |!>(! c2 B2 c4)!>)! |!ff! e2 ed (^c4 | d2) dc B2!>(! A2!>)! | %15
 [EB][FA] [E^G][FA] (G2 A=G) |!f!"^Бо –го –ро  – ди –\nBo –go– ro   – di  –" F2 _B2 AB GA | %17
"^– це;    Бо      –      го    –   ро –ди–це;  но         я         –        ко                        и    –    му       –       –       ща   –    я    дер–жа–ву\n– tse;   Bo      –      go   –    ro– di–tse;   no        ya        –       ko                         i     –    mu      –      –     shcha  – ya   der–zha–vu" _BG c2- cA FC | %18
 EG B2 c2!p! EF | G!<(!A_BA!>(! (B3 A)!<)!!>)! |!<(! GA!>(! _B4!>(! AG!<)!!>)!!>)! | %21
 F2!p! F2 G2 A2 | %22
"^не       –         по   –  бе   –    ди       –       –           му   –   ю,                               от     вся–ких   нас  бед,     вся –ких   нас\nne       –         po   –  be   –    di        –        –           mu  – yu,                               ot     vsya-kikh nas  bed,    vsya–kikh  nas" (_B3 A)!<(! GA B2!<)! | %23
 (A2 _BA G2) AG | (A4 G2)!f! !>!G2 | !>!c2 cd cB !>!c2 | cd cB (c2 FG) | (A4!>(! _BcA=B)!>)! | %28
!mf! [Ac]2!>(! [^GB]2 A4!>)! |[M:6/4]!f! c2 c2 (!>!G A2 =F) (!>!G2 AB) |[M:4/4]!ff! c2 c2 G2 AB | %31
 c4- cG AB |[M:6/4] c2 B2 (cBAd c3 B |[M:4/4]!ff! !>!A3 F AECE | !>!A3 F AECE |!>(! G4)!p! F4!>)! | %36
 !fermata!E8 |] %37
V:4
 x8 | x8 | x8 | x8 | c2 BA x4 | x8 |[M:2/4] x4 |[M:4/4] x8 | x8 | x8 | (G4 c2) BA | x8 | x8 | x8 | %14
 x8 | x2 x2 E4 | F2 _B2 x4 | x8 | x8 | x8 | x2 (_BA G2) x2 | x8 | x8 | x8 | x8 | x8 | x8 | x8 | %28
 x8 |[M:6/4] AG ^F2 x8 |[M:4/4] x8 | x8 |[M:6/4] x12 |[M:4/4] x8 | x8 | x8 | x8 |] %37
V:5
 z8 | %1
"^Взбран – ной       во –е   –   во – де          по –  бе  –  ди –   тель –  на   –  я,      по  –  бе –\nVzbran  –  noi        vo–ye  –   vo – de          po –  be  –  di  –    tel'    –  na   – ya,     po  –  be –"!>(! (!>!cd e2) !>![Gd]4!>)! | %2
!p! d2 d2 d2 c2 | d2!<(! e2 f2 ef!<)! | g2 gf e2 c2 | %5
!ff!"^– ди – тель–на   –   я,                    я  –  ко   из–бавль-ше  – ся       от         злых,           бла – го   –   дарст      –        –    вен –\n– di  –  tel'  – na   –  ya,                 ya –  ko    iz –bavl' – she–sya       ot         zluikh,          bla  – go   –   darst      –        –     ven –" a4!>(! [eg]2 [df]2!>)! | %6
[M:2/4] e4 |[M:4/4] z2!f! c2!>(! cd e2!>)! | d2 d2 d2 c2 | (d2 c2) d2 e2 | (f2 ef g2) gf | %11
"^– на   –   я                                                                  вос–пи  –  су  – ем   Ти    ра  –   би        Тво – и,                     Бо –го –ро  – ди –\n– na   –  ya                                                                 vos– pi  –  su  –yem Ti     ra   –   bi         Tvo –  i,                     Bo –go– ro   – di  –" e2!f! (!>!f4 g2 | %12
!>(! fe [df]2 [ce]4-!>)! | [ce]2) z2!ff! g2 fe | dc B2 f2!>(! fe!>)! | dc Bc (d2 c2) | %16
!f! c2 c2 cd ed | %17
"^– це;    Бо      –      го    –   ро –ди–це;              но         я        –        ко             и    –    му       –       –       ща   –    я     дер–жа–ву\n– tse;   Bo      –      go   –    ro– di–tse;               no        ya        –       ko             i     –    mu      –      –    shcha  – ya    der–zha–vu" c2 !>!f4 c2 | %18
 c2 [df]2 [ce]4 |!p! [^ce]2 [ce]4 [ce]2 | [^ce]2!<(! c4 c2!<)! | d2!p! de d2 de | %22
"^не       –         по   –  бе   –    ди       –       –           му   –   ю,                                                                      от      вся       –      ких нас\nne       –         po   –  be   –    di        –        –           mu  – yu,                                                                      ot      vsya     –      kikh nas" defe!<(! d2 c_B!<)! | %23
 c6 de | (f4 c2 d2 | e6)!f! [df]2 | !>![eg]4 [cg]2 [cf]2 | %27
"^бед                                                 сво–бо– ди,                да        зо   –    вем                 Ти:                         ра – дуй  –  ся        не –\nbed                                                 svo–bo– di,                  da        zo   –    vem                Ti:                          ra – dui   –  cya      ne –" (defg f!>(!e d2)!>)! | %28
!mf! [ce]2!>(! [^Gd]2 [Ac]4!>)! |[M:6/4]!f! [ce]2 [cd]2 !>!d4 (!>!e f2 d) | %30
[M:4/4]!ff! [eg]2 [eg]2 [dg]2 g2 | %31
"^–ве       –       –        сто          не  – не – вест       –       –       –       –       –       –       –       –       –       –       –       –               на   –    я.\n –ve       –       –        sto           ne –  ne – vest       –       –       –       –       –       –       –       –       –       –       –       –               na  –    ya.    \n" (g2- gf ed) [ce][df] | %32
[M:6/4] [cg]2 ed (cd ef g2 e2 |[M:4/4]!ff! !>!f3 c ec A2 | !>!f3 c ec A2- | %35
!>(! [Ad]4) ([Gc]2 [FB]2)!>)! |!p! !fermata![Ec]8 |] %37
V:6
 x8 | x8 | x8 | x8 | x8 | (f3 e) x4 |[M:2/4] x4 |[M:4/4] x8 | x8 | x8 | x8 | x8 | x8 | x8 | x8 | %15
 x8 | x8 | x8 | x8 | x8 | x2 (GA _B2) A2 | A2 A2 A2 A2 | (_B2 c2) d2 x2 | x8 | x8 | x8 | x8 | %27
 (A4 _B2 =B2) | x8 |[M:6/4] x12 |[M:4/4] x2 x2 x2 cd | (ef ed cB) x2 |[M:6/4] x2 B2 x8 | %33
[M:4/4] x8 | x8 | x8 | x8 |] %37
V:7
 z8 | z8 | %2
!p!"^Взбран-ной   во – е     –    во        –       де                                            по  –  бе  –\nVzbpan–noi    vo –ye    –    vo         –      de                                            po  –  be  –" [G,,D,]2 D,E, [G,,D,]2 F,E, | %3
 D,E,D,C,!<(! G,4-!<)! | G,4 G,C, E,G, | %5
!ff!"^– ди – тель–на   –   я,                                               я        –        ко       из – бавль– ше  –  ся      от        злых, \n– di  –  tel'  – na   –  ya,                                             ya      –        ko        iz  – bavl'   –she – sya      ot       zluikh," C4!>(! G,2 G,2!>)! | %6
[M:2/4] [G,,G,]4 |[M:4/4] z8 |!p! [G,,D,]4 [G,,D,]2 [G,,A,]2 | [G,,G,]2 F,E, [G,,D,]2 G,A, | %10
!<(! (G,8-!<)! | G,_B, !>!A,3 C) !>!B,2 | A,2 G,2- [C,G,]4- | [C,G,]2 z2!ff! _B,2 A,G, | %14
 F,E, D,2 G,2 F,2 | E,2 D,2 (C,B,, A,,2) |!f! A,2 G,2 F,2 G,F, | %17
"^– це;    Бо      –      го    –   ро –ди–це;                          но      я   –    ко                          и     –      му   –    ща   –    я    дер–жа–ву\n– tse;   Bo      –      go   –    ro– di–tse;                           no    ya   –   ko                           i      –      mu –  shcha  – ya   der–zha–vu" E,2 !>!A,4 A,2 | %18
 G,2 [G,,G,]2 [C,G,]4 | z2!p! E,!<(!F, G,A, _B,2-!<)! | B,A,!>(! G,F, E,D, [A,,^C,]2!>)! | %21
 D,2!p! D,2 E,2 F,2 | %22
"^не       –         по   –  бе   –    ди  –  му  –  ю,      не         –         по-бе-ди – му –   ю                          от      вся       –      ких нас\nne       –         po   –  be   –    di   –  mu – yu,      ne         –         po-be-di  – mu – yu                         ot      vsya     –      kikh nas" (G,2 A,2) _B,A, G,2 | %23
 F,A, G,F, E,G,!ff! C2- | CA,F,C, E,G, B,2 | C6!f! A,2 | !>!_B,4 [_B,,B,]2 [A,,A,]2 | %27
 (C,4!>(! D,4)!>)! | [A,,E,]2!>(! [E,,E,]2 [A,,E,]4!>)! |[M:6/4]!f! A,2 D,A, !>!G,4 (!>!G,2 A,B,) | %30
[M:4/4]!ff! C2 CD CB, A,G, | (C2 B,A, G,F,) E,D, |[M:6/4] E,F, G,2 (A,B, CD E2 A,2 | %33
[M:4/4]!ff! !>!C3 A, CA,E,C, | !>!C3 A, CA,E,C, |!>(! D,4) [G,,D,]4!>)! | %36
!p! !fermata![C,,G,,C,]8 |] %37
V:8
 x8 | x8 | x2 G,,2 x2 G,,2 | G,,4 G,4 | x8 | x8 |[M:2/4] x4 |[M:4/4] x8 | x8 | x2 G,,2 x4 | x8 | %11
 x8 | x8 | x8 | x8 | x8 | x8 | x8 | x8 | x2 A,,2 A,,2 A,,2- | A,,2 A,,2 A,,2 x2 | x8 | x8 | x8 | %24
 x8 | x8 | x8 | F,,8 | x8 |[M:6/4] x12 |[M:4/4] x8 | x8 |[M:6/4] x12 |[M:4/4] x8 | x8 | x8 | x8 |] %37

